X:109
%%pagewidth 7.5in
T:Jog on, jog on
M:6/8
L:1/8
K:G
%%score 1 2
V:1 clef-treble
V:2 clef-bass octave=-1
V:1
D|[B,G]2D [B,G]2A|([GB]>c)B ([DA]F)D|([DG]>A)G[EGd]2c|([DGB]3[DFA]2)D|
w:In eighty-*eight, ere I* was born,* As I* can well re-mem-ber, In
V:2
z|G,3E3|D3C3|B,3A,3|D3-D2z|
V:1
A2B (c>d)c&=F3E3|(B>c)B A>=G[^DF]&[D^G]3C3|([B,EG]>AG) ([A,^DF]>G)F|E3D2&B,2^Cx2||
w:Au-gust was* a fleet* pre-par'd,* The month* be-fore* Sep-tem-ber.
V:2
D3A,3|E,3A,2B,|E,3F,3|G,2[A,G][DF]2||

